build/img/doc-lamp.svg

<svg width="24" height="24" viewBox="0 0 24 24" fill="none" xmlns="http://www.w3.org/2000/svg">
<path d="M19.0019 9.99901V7.82611C19.0019 7.29588 18.7908 6.78667 18.4157 6.41152L15.5865 3.58234C15.2113 3.20718 14.7021 2.99609 14.1719 2.99609H6.99693C5.89147 2.99609 4.99609 3.89147 4.99609 4.99693V19.0028C4.99609 20.1082 5.89147 21.0036 6.99693 21.0036H12.9994" stroke="currentColor" fill="none" stroke-width="1.5" stroke-linecap="round" stroke-linejoin="round"/>
<path d="M19.0021 7.99818H15.0004C14.4482 7.99818 14 7.54999 14 6.99776V2.99609" stroke="currentColor" fill="none" stroke-width="1.5" stroke-linecap="round" stroke-linejoin="round"/>
<circle cx="18.0012" cy="16.0012" r="3.00125" stroke="currentColor" fill="none" stroke-width="1.5" stroke-linecap="round" stroke-linejoin="round"/>
<path d="M19.7151 22.0034V18.4629" stroke="currentColor" stroke-width="1.5" stroke-linecap="round" stroke-linejoin="round"/>
<path d="M16.2873 18.4629V22.0034" stroke="currentColor" stroke-width="1.5" stroke-linecap="round" stroke-linejoin="round"/>
<path d="M16.2871 22.0039L18.0018 21.5747L19.7165 22.0039" stroke="currentColor" stroke-width="1.5" stroke-linecap="round" stroke-linejoin="round"/>
</svg>

<svg width="24" height="24" viewBox="0 0 24 24" fill="none" xmlns="http://www.w3.org/2000/svg"><path d="M19.002 9.999V7.826c0-.53-.211-1.04-.586-1.414l-2.83-2.83a2.002 2.002 0 00-1.414-.586H6.997a2 2 0 00-2 2v14.007a2 2 0 002 2h6.002" stroke="currentColor" stroke-width="1.5" stroke-linecap="round" stroke-linejoin="round"/><path d="M19.002 7.998H15a1 1 0 01-1-1V2.996" stroke="currentColor" stroke-width="1.5" stroke-linecap="round" stroke-linejoin="round"/><circle cx="18.001" cy="16.001" r="3.001" stroke="currentColor" stroke-width="1.5" stroke-linecap="round" stroke-linejoin="round"/><path d="M19.715 22.003v-3.54m-3.428 0v3.54m0 .001l1.715-.43 1.715.43" stroke="currentColor" stroke-width="1.5" stroke-linecap="round" stroke-linejoin="round"/></svg>
